src/assets/images/close-blue-icon.svg

<?xml version="1.0" encoding="UTF-8"?>
<svg width="28px" height="28px" viewBox="0 0 28 28" version="1.1" xmlns="http://www.w3.org/2000/svg" xmlns:xlink="http://www.w3.org/1999/xlink">
    <!-- Generator: Sketch 55.2 (78181) - https://sketchapp.com -->
    <title>error(3)</title>
    <desc>Created with Sketch.</desc>
    <g id="Final-Screens" stroke="none" stroke-width="1" fill="none" fill-rule="evenodd">
        <g id="customer-master-rules-history-1" transform="translate(-1351.000000, -216.000000)" fill="#1F496A" fill-rule="nonzero">
            <g id="error(3)" transform="translate(1351.000000, 216.000000)">
                <path d="M23.8931538,4.09392308 C18.4347692,-1.36446154 9.55284615,-1.365 4.09392308,4.09392308 C-1.365,9.55284615 -1.36446154,18.4342308 4.09392308,23.8931538 C9.55230769,29.3520769 18.4342308,29.3520769 23.8931538,23.8931538 C29.3515385,18.4342308 29.3515385,9.55230769 23.8931538,4.09392308 Z M19.5143846,19.5143846 C19.0938462,19.9349231 18.4121538,19.9349231 17.9916154,19.5143846 L13.9935385,15.5163077 L9.80538462,19.7044615 C9.38484615,20.125 8.70315385,20.125 8.28261538,19.7044615 C7.86207692,19.2839231 7.86207692,18.6022308 8.28261538,18.1816923 L12.4707692,13.9935385 L8.47269231,9.99546154 C8.05215385,9.57492308 8.05215385,8.89269231 8.47269231,8.47269231 C8.89323077,8.05215385 9.57492308,8.05215385 9.99546154,8.47269231 L13.9935385,12.4707692 L17.801,8.66330769 C18.2215385,8.24276923 18.9032308,8.24276923 19.3237692,8.66330769 C19.7443077,9.08384615 19.7443077,9.76553846 19.3237692,10.1860769 L15.5163077,13.9935385 L19.5143846,17.9916154 C19.9349231,18.4121538 19.9349231,19.0938462 19.5143846,19.5143846 Z" id="Shape"></path>
            </g>
        </g>
    </g>
</svg>

<?xml version="1.0" encoding="UTF-8"?>
<svg version="1.1" viewBox="0 0 28 28" xmlns="http://www.w3.org/2000/svg">
<title>error(3)</title>
<desc>Created with Sketch.</desc>
<g fill="none" fill-rule="evenodd">
<g transform="translate(-1351 -216)" fill="#1F496A" fill-rule="nonzero">
<g transform="translate(1351 216)">
<path d="m23.893 4.0939c-5.4584-5.4584-14.34-5.4589-19.799 0-5.4589 5.4589-5.4584 14.34 0 19.799 5.4584 5.4589 14.34 5.4589 19.799 0 5.4584-5.4589 5.4584-14.341 0-19.799zm-4.3788 15.42c-0.42054 0.42054-1.1022 0.42054-1.5228 0l-3.9981-3.9981-4.1882 4.1882c-0.42054 0.42054-1.1022 0.42054-1.5228 0-0.42054-0.42054-0.42054-1.1022 0-1.5228l4.1882-4.1882-3.9981-3.9981c-0.42054-0.42054-0.42054-1.1028 0-1.5228 0.42054-0.42054 1.1022-0.42054 1.5228 0l3.9981 3.9981 3.8075-3.8075c0.42054-0.42054 1.1022-0.42054 1.5228 0 0.42054 0.42054 0.42054 1.1022 0 1.5228l-3.8075 3.8075 3.9981 3.9981c0.42054 0.42054 0.42054 1.1022 0 1.5228z"/>
</g>
</g>
</g>
</svg>
